X:1
T:James Gibb editions
T:Come to our poor nature's night - Barnby
%%score [ ( 1 2 ) ( 3 4 ) ]
L:1/8
Q:1/4=80
M:4/4
K:F
V:1 treble nm="Midi_74"
V:2 treble 
V:3 bass nm="Midi_74"
V:4 bass 
V:1
"^Come to our poor nature's night""^George Rawson\n(1807-89)""^Joseph Barnby\n(1838-96)""^Abba (777. 5)" F2 A2"^1" G2 A2 | %1
 B2 c2 A4 || A2 d2 c2 =BA | A2 ^G2 A4 ||[M:4/4] A2 d2 d2 c2 | B2 A2 B4 || A2 F2 A2 G2 | F8 || %8
 F4 F4 |] %9
V:2
 C2 F2 E2 F2 | F2 E2 F4 || F2 A2 A2 E2 | E2 E2 E4 ||[M:4/4] D2 E^F G2 G2 | G2 ^F2 G4 || %6
 E2 F2 F2 E2 | F8 || D4 C4 |] %9
V:3
 A,2 C2 C2 C2 | D2"^I" C2 C4 || D2 F2 E2 C2 | =B,2 D2 ^C4 || %4
[M:4/4]"^1. Come to our poor nature's night\nWith Thy blessed inward light,\nHoly Ghost, the Infinite,\nComforter divine.\n\n2. We are sinful, cleans us, Lord;\nSick and faint, Thy strength afford;\nLost, until by Thee restored,\nComforter divine.\n\n3. Orphan are our souls and poor;\nGive us from Thy heavenly store\nFaith, joy, love for evermore,\nComforter divine.\n\n4. Like the dew Thy peace distil;\nGuide, subdue our wayward will,\nThings of Christ unfolding still,\nComforter divine." D2 =C2 B,2 !tenuto!_E2 | %5
 D2 D2 D4 || %6
"^5. Gentle, awful, holy Guest,\nMake Thy temple in each breast;\nThere Thy presence be confest,\nComforter divine.\n\n6. With us, for us, intercede,\nAnd with voiceless graonings plead\nOur unutterable need,\nComforter divine.\n\n7. In us, \"Abba, Father\", cry;\nEarnest of the bliss on high,\nSeal of immortality,\nComforter divine.\n\n8. Search for us the depths of God;\nUpwards, by the starry road,\nBear us to Thy high abode,\nComforter divine.\n" A,2 A,2 C2 B,2 | %7
 A,8 || B,4 A,4 |] %9
V:4
 F,2 F,2 B,2 A,2 | G,2 C,2 F,4 || D,2 =B,,2 E,2 E,2 | E,2 E,2 A,4 ||[M:4/4] ^F,2 D,2 G,2 C,2 | %5
 D,2 D,2 G,4 || ^C,2 D,2 =C,2 C,2 | F,8 || B,,4 F,4 |] %9

